X:1
T: Flying to St. John's
C:Bruce Shawyer
R:Jig
I:speed 180
K:G
M:6/8
L:1/16
|:G4B2 d4g2|e2f2g2 f4d2|c4e2 g4c'2|b2a2g2 a6|
f2e2d2 c4e2|f2e2d2 B6|^c2B2A2 c2B2A2|d2c2A2 G6:|
K:Bm
|:B4d2 f4b2|g2f2e2 f6|B4e2 g4b2|g2f2e2 f6|
d4f2 b4d'2|b2a2g2 f6|g2f2e2 g2f2e2|d4B2 B6:|
